public/home/img/icon-github.svg

<?xml version="1.0" encoding="UTF-8" standalone="no"?>
<svg viewBox="0 0 33 33" version="1.1" xmlns="http://www.w3.org/2000/svg" xmlns:xlink="http://www.w3.org/1999/xlink" xmlns:sketch="http://www.bohemiancoding.com/sketch/ns">
    <!-- Generator: Sketch 3.2.2 (9983) - http://www.bohemiancoding.com/sketch -->
    <title>Fill 3</title>
    <desc>Created with Sketch.</desc>
    <defs></defs>
    <g id="Page-1" stroke="none" stroke-width="1" fill="none" fill-rule="evenodd" sketch:type="MSPage">
        <g id="GitHub-Mark" sketch:type="MSLayerGroup" transform="translate(-94.000000, -87.000000)" fill="#A9B2BB">
            <path d="M110.319,87.4596083 C101.325,87.4596083 94.031,94.7526083 94.031,103.749608 C94.031,110.946608 98.698,117.051608 105.171,119.205608 C105.986,119.355608 106.283,118.852608 106.283,118.420608 C106.283,118.034608 106.269,117.009608 106.261,115.650608 C101.73,116.634608 100.774,113.466608 100.774,113.466608 C100.033,111.584608 98.965,111.083608 98.965,111.083608 C97.486,110.073608 99.077,110.093608 99.077,110.093608 C100.712,110.208608 101.572,111.772608 101.572,111.772608 C103.025,114.261608 105.385,113.542608 106.313,113.125608 C106.461,112.073608 106.882,111.355608 107.347,110.948608 C103.73,110.537608 99.927,109.139608 99.927,102.897608 C99.927,101.119608 100.562,99.6646083 101.604,98.5266083 C101.436,98.1146083 100.877,96.4576083 101.764,94.2156083 C101.764,94.2156083 103.131,93.7776083 106.243,95.8856083 C107.542,95.5236083 108.936,95.3436083 110.321,95.3366083 C111.705,95.3436083 113.098,95.5236083 114.399,95.8856083 C117.509,93.7776083 118.874,94.2156083 118.874,94.2156083 C119.763,96.4576083 119.204,98.1146083 119.037,98.5266083 C120.081,99.6646083 120.711,101.119608 120.711,102.897608 C120.711,109.155608 116.902,110.532608 113.274,110.935608 C113.858,111.438608 114.379,112.432608 114.379,113.952608 C114.379,116.129608 114.359,117.886608 114.359,118.420608 C114.359,118.856608 114.653,119.363608 115.479,119.204608 C121.947,117.045608 126.61,110.944608 126.61,103.749608 C126.61,94.7526083 119.316,87.4596083 110.319,87.4596083" id="Fill-3" sketch:type="MSShapeGroup"></path>
        </g>
    </g>
</svg>

<svg viewBox="0 0 33 33" xmlns="http://www.w3.org/2000/svg"><path d="m110.319 87.4596083c-8.994 0-16.288 7.293-16.288 16.2899997 0 7.197 4.667 13.302 11.14 15.456.815.15 1.112-.353 1.112-.785 0-.386-.014-1.411-.022-2.77-4.531.984-5.487-2.184-5.487-2.184-.741-1.882-1.809-2.383-1.809-2.383-1.479-1.01.112-.99.112-.99 1.635.115 2.495 1.679 2.495 1.679 1.453 2.489 3.813 1.77 4.741 1.353.148-1.052.569-1.77 1.034-2.177-3.617-.411-7.42-1.809-7.42-8.051 0-1.778.635-3.2329997 1.677-4.3709997-.168-.412-.727-2.069.16-4.311 0 0 1.367-.438 4.479 1.67 1.299-.362 2.693-.542 4.078-.549 1.384.007 2.777.187 4.078.549 3.11-2.108 4.475-1.67 4.475-1.67.889 2.242.33 3.899.163 4.311 1.044 1.138 1.674 2.5929997 1.674 4.3709997 0 6.258-3.809 7.635-7.437 8.038.584.503 1.105 1.497 1.105 3.017 0 2.177-.02 3.934-.02 4.468 0 .436.294.943 1.12.784 6.468-2.159 11.131-8.26 11.131-15.455 0-8.9969997-7.294-16.2899997-16.291-16.2899997" fill="#a9b2bb" fill-rule="evenodd" transform="translate(-94 -87)"/></svg>
